public/media/icons-technologies/LODASH.svg

<svg width="140" height="140" viewBox="0 0 140 140" fill="none" xmlns="http://www.w3.org/2000/svg">
<path fill-rule="evenodd" clip-rule="evenodd" d="M10.1818 15H21.3324V88.9996H65.4281V98.1227H10.1814V15H10.1818ZM95.8387 36.7945C103.441 35.7808 111.551 37.3012 117.633 42.3698C124.223 46.9314 127.771 55.0408 128.277 62.6435C129.291 71.7667 128.277 80.8902 123.209 88.493C118.647 94.5749 111.551 98.6299 103.441 99.1365C95.8387 100.15 87.2227 98.6299 80.6337 93.5612C74.5513 88.493 71.5101 80.8902 70.4963 73.2875C69.4831 65.1776 70.4963 56.0545 75.565 48.9589C79.6199 41.8632 87.7293 37.3012 95.8387 36.7945ZM97.3595 45.411C102.428 44.9039 108.003 46.4243 112.058 49.9726C115.606 54.027 117.633 59.0957 118.14 64.1639C118.647 69.7397 118.14 75.8216 115.606 80.8902C113.072 85.9584 108.51 89.5067 102.935 90.52C97.8662 91.5337 92.2913 90.0134 88.7431 86.9722C84.6881 83.931 82.154 79.3694 81.1403 74.8079C80.1266 68.2188 80.6337 61.6298 83.1677 55.5479C85.7018 49.9726 91.2771 45.9177 97.3591 45.4106L97.3595 45.411Z" fill="black"/>
<path fill-rule="evenodd" clip-rule="evenodd" d="M10.1818 111.301H129.798V123.972H10.1818V111.301Z" fill="#3492FF"/>
</svg>

<svg xmlns="http://www.w3.org/2000/svg" fill="none" viewBox="0 0 140 140">
  <path fill="#000" fill-rule="evenodd" d="M10.18 15h11.15v74h44.1v9.12H10.18V15Zm85.66 21.8c7.6-1.02 15.71.5 21.8 5.57 6.58 4.56 10.13 12.67 10.64 20.27 1.01 9.13 0 18.25-5.07 25.85a26.72 26.72 0 0 1-19.77 10.65c-7.6 1.01-16.22-.51-22.8-5.58C74.54 88.5 71.5 80.9 70.5 73.3c-1.02-8.11 0-17.24 5.06-24.33 4.06-7.1 12.17-11.66 20.28-12.17Zm1.52 8.61a19.7 19.7 0 0 1 14.7 4.56 25.47 25.47 0 0 1 6.08 14.2c.5 5.57 0 11.65-2.53 16.72a17.6 17.6 0 0 1-12.67 9.63c-5.07 1.01-10.65-.5-14.2-3.55a20.9 20.9 0 0 1-7.6-12.16c-1.01-6.6-.5-13.18 2.03-19.26A17.55 17.55 0 0 1 97.36 45.4Z" clip-rule="evenodd"/>
  <path fill="#3492FF" fill-rule="evenodd" d="M10.18 111.3H129.8v12.67H10.18V111.3Z" clip-rule="evenodd"/>
</svg>
